;FLAVOR:Marlin
;TIME:9004
;Filament used: 5.71927m
;Layer height: 0.2
;MINX:66.55
;MINY:66.045
;MINZ:0.2
;MAXX:153.469
;MAXY:153.834
;MAXZ:9.9
;TARGET_MACHINE.NAME:Anet A8
;Generated with Cura_SteamEngine 5.6.0
M140 S60
M105
M190 S60
M104 S200
M105
M109 S200
M82 ;absolute extrusion mode
G28 ;Home
G1 Z15.0 F2000 ;Move the platform
G92 E0
G92 E0
G1 F1500 E-6.5
;LAYER_COUNT:49
;LAYER:0
M107 P1
M204 S1000
G0 F7500 X81.993 Y76.216 Z0.3
;TYPE:SKIRT
G1 F1500 E0
G1 X83.82 Y74.959 E0.11064
G1 X87.083 Y74.036 E0.27982
G1 X87.43 Y74.022 E0.29714
G1 X87.779 Y73.925 E0.31522
G1 X88.13 Y73.912 E0.33274
G1 X89.608 Y73.492 E0.4094
G1 X90.099 Y72.547 E0.46253
G1 X92.159 Y70.358 E0.61249
G1 X93.99 Y69.094 E0.72349
G1 X97.563 Y68.08 E0.90879
G1 X99.788 Y68.182 E1.01991
G1 X100.646 Y68.425 E1.0644
G1 X101.228 Y68.539 E1.09399
G1 X101.671 Y68.503 E1.11616
G1 X102.929 Y68.696 E1.17966
G1 X103.294 Y68.796 E1.19854
G1 X103.744 Y68.321 E1.23118
G1 X105.524 Y67.077 E1.33953
G1 X108.647 Y66.207 E1.50127
G1 X110.844 Y66.045 E1.61117
G1 X114.207 Y66.985 E1.78538
G1 X115.477 Y67.713 E1.85842
G1 X116.261 Y68.219 E1.90497
G1 X116.791 Y68.429 E1.93341
G1 X117.75 Y68.935 E1.98751
G1 X120.215 Y68.248 E2.11517
G1 X122.412 Y68.086 E2.22508
G1 X125.631 Y68.991 E2.3919
G1 X127.606 Y70.069 E2.50416
G1 X129.61 Y72.233 E2.6513
G1 X129.779 Y72.454 E2.66518
G1 X130.145 Y72.86 E2.69246
G1 X130.459 Y73.15 E2.71378
G1 X131.583 Y74.335 E2.79526
G1 X132.785 Y74.247 E2.85539
G1 X135.931 Y75.13 E3.01841
G1 X137.872 Y76.181 E3.12853
G1 X139.954 Y78.389 E3.27994
G1 X140.974 Y79.993 E3.37477
G1 X141.273 Y81.023 E3.42828
G1 X141.414 Y81.391 E3.44794
G1 X141.478 Y81.594 E3.45856
G1 X141.64 Y81.91 E3.47628
G1 X141.687 Y82.023 E3.48239
G1 X141.983 Y82.449 E3.50827
G1 X142.317 Y83.583 E3.56724
G1 X143.286 Y83.856 E3.61747
G1 X145.202 Y84.858 E3.72534
G1 X147.41 Y87.167 E3.88473
G1 X148.446 Y88.807 E3.98151
G1 X149.368 Y91.964 E4.14559
G1 X149.366 Y93.586 E4.22651
G1 X149.34 Y94.414 E4.26784
G1 X149.456 Y96.165 E4.35539
G1 X151.412 Y98.204 E4.49636
G1 X152.453 Y99.846 E4.59335
G1 X153.286 Y102.688 E4.74111
G1 X153.469 Y104.973 E4.85547
G1 X152.516 Y108.155 E5.02119
G1 X152.436 Y108.345 E5.03147
G1 X152.308 Y108.736 E5.052
G1 X152.265 Y108.842 E5.0577
G1 X151.791 Y110.56 E5.14662
G1 X152.444 Y111.589 E5.20742
G1 X153.278 Y114.44 E5.35562
G1 X153.461 Y116.675 E5.4675
G1 X152.537 Y119.954 E5.63746
G1 X151.574 Y121.778 E5.74036
G1 X150.688 Y122.665 E5.80291
G1 X150.181 Y123.264 E5.84206
G1 X149.863 Y123.948 E5.87969
G1 X149.044 Y124.774 E5.93773
G1 X149.251 Y125.475 E5.97419
G1 X149.434 Y127.712 E6.08617
G1 X148.521 Y130.944 E6.25372
G1 X147.558 Y132.771 E6.35676
G1 X145.064 Y135.265 E6.53272
G1 X143.579 Y136.008 E6.61557
G1 X143.156 Y136.399 E6.64431
G1 X142.655 Y136.627 E6.67177
G1 X142.537 Y136.715 E6.67911
G1 X141.719 Y137.245 E6.72774
G1 X140.966 Y139.942 E6.86744
G1 X140.003 Y141.766 E6.97034
G1 X137.831 Y143.939 E7.12362
G1 X136.023 Y145.095 E7.23069
G1 X133.189 Y145.879 E7.37739
G1 X132.622 Y145.957 E7.40594
G1 X132.208 Y146.044 E7.42705
G1 X131.91 Y146.072 E7.44198
G1 X130.431 Y146.486 E7.5186
G1 X129.828 Y147.63 E7.58312
G1 X127.675 Y149.783 E7.73503
G1 X125.865 Y150.948 E7.84242
G1 X122.733 Y151.818 E8.00459
G1 X120.513 Y151.919 E8.11546
G1 X119.358 Y151.579 E8.17553
G1 X119.23 Y151.559 E8.18199
G1 X118.777 Y151.46 E8.20512
G1 X118.311 Y151.418 E8.22847
G1 X118.22 Y151.402 E8.23308
G1 X117.884 Y151.385 E8.24986
G1 X116.62 Y151.174 E8.3138
G1 X116.072 Y151.722 E8.35246
G1 X114.314 Y152.846 E8.45656
G1 X111.332 Y153.673 E8.61095
G1 X109.019 Y153.834 E8.72662
G1 X106.339 Y153.015 E8.86643
G1 X105.923 Y152.846 E8.88884
G1 X105.143 Y152.622 E8.92932
G1 X104.068 Y151.957 E8.99239
G1 X103.764 Y151.826 E9.0089
G1 X103.539 Y151.7 E9.02177
G1 X103.119 Y151.521 E9.04455
G1 X102.296 Y151.063 E9.09153
G1 X99.806 Y151.752 E9.22043
G1 X97.51 Y151.913 E9.33526
G1 X94.391 Y150.999 E9.49741
G1 X92.574 Y150.019 E9.6004
G1 X90.341 Y147.784 E9.75803
G1 X90.086 Y147.39 E9.78144
G1 X89.92 Y147.197 E9.79414
G1 X88.507 Y145.786 E9.89376
G1 X88.419 Y145.662 E9.90135
G1 X87.142 Y145.751 E9.96522
G1 X84.09 Y144.857 E10.12388
G1 X82.273 Y143.877 E10.22687
G1 X80.161 Y141.765 E10.37589
G1 X79.03 Y140.036 E10.47896
G1 X78.724 Y138.968 E10.53439
G1 X78.519 Y138.392 E10.56489
G1 X78.345 Y138.035 E10.58471
G1 X78.049 Y137.623 E10.61001
G1 X77.69 Y136.412 E10.67303
G1 X76.68 Y136.116 E10.72554
G1 X74.862 Y135.135 E10.8286
G1 X72.666 Y132.939 E10.98354
G1 X71.557 Y131.213 E11.08589
G1 X70.549 Y127.787 E11.26406
G1 X70.648 Y126.306 E11.33812
G1 X70.669 Y125.652 E11.37076
G1 X70.51 Y125.107 E11.39908
G1 X70.588 Y123.821 E11.46336
G1 X68.67 Y121.907 E11.59855
G1 X67.562 Y120.197 E11.7002
G1 X66.713 Y117.322 E11.84976
G1 X66.55 Y114.922 E11.96977
G1 X67.473 Y111.91 E12.12694
G1 X67.583 Y111.644 E12.1413
G1 X67.75 Y111.166 E12.16656
G1 X67.811 Y110.882 E12.18105
G1 X68.222 Y109.452 E12.25528
G1 X67.568 Y108.445 E12.31519
G1 X66.721 Y105.588 E12.46386
G1 X66.558 Y103.228 E12.58188
G1 X67.552 Y99.804 E12.75975
G1 X68.57 Y98.172 E12.85572
G1 X69.242 Y97.455 E12.90474
G1 X69.593 Y97.03 E12.93224
G1 X69.786 Y96.721 E12.95042
G1 X69.902 Y96.577 E12.95964
G1 X70.088 Y96.18 E12.98152
G1 X70.958 Y95.255 E13.04487
G1 X70.747 Y94.536 E13.08225
G1 X70.584 Y92.204 E13.19888
G1 X71.486 Y89.092 E13.36053
G1 X72.37 Y87.401 E13.45573
G1 X74.601 Y85.049 E13.61746
G1 X76.088 Y84.065 E13.70642
G1 X76.551 Y83.893 E13.73106
G1 X77.033 Y83.626 E13.75855
G1 X77.441 Y83.301 E13.78457
G1 X78.263 Y82.747 E13.83403
G1 X79.035 Y80.12 E13.97063
G1 X79.928 Y78.411 E14.06683
G1 X81.993 Y76.216 E14.21719
G0 F7500 X82.255 Y76.521
G1 F1500 X83.991 Y75.326 E14.32233
G1 X87.146 Y74.434 E14.4859
G1 X87.49 Y74.42 E14.50308
G1 X87.838 Y74.323 E14.5211
G1 X88.192 Y74.31 E14.53878
G1 X89.737 Y73.871 E14.61891
G1 X89.871 Y73.854 E14.62565
G1 X90.43 Y72.779 E14.6861
G1 X92.421 Y70.663 E14.83105
G1 X94.162 Y69.461 E14.9366
G1 X97.609 Y68.483 E15.11536
G1 X99.725 Y68.58 E15.22104
G1 X100.557 Y68.816 E15.26418
G1 X101.205 Y68.943 E15.29713
G1 X101.656 Y68.906 E15.3197
G1 X102.823 Y69.082 E15.37858
G1 X103.419 Y69.246 E15.40942
G1 X104.005 Y68.627 E15.45195
G1 X105.698 Y67.443 E15.55502
G1 X108.714 Y66.603 E15.71122
G1 X110.804 Y66.449 E15.81577
G1 X114.051 Y67.357 E15.98398
G1 X115.26 Y68.049 E16.05348
G1 X116.08 Y68.578 E16.10216
G1 X116.604 Y68.783 E16.13023
G1 X117.703 Y69.363 E16.19223
G1 X120.282 Y68.644 E16.3258
G1 X122.372 Y68.49 E16.43036
G1 X125.478 Y69.363 E16.59132
G1 X127.356 Y70.388 E16.69806
G1 X129.316 Y72.505 E16.84199
G1 X129.472 Y72.711 E16.85488
G1 X129.859 Y73.14 E16.88371
G1 X130.169 Y73.426 E16.90475
G1 X131.275 Y74.587 E16.98475
G1 X131.376 Y74.751 E16.99436
G1 X132.745 Y74.651 E17.06284
G1 X135.779 Y75.503 E17.22006
G1 X137.626 Y76.503 E17.32485
G1 X139.634 Y78.632 E17.47086
G1 X140.607 Y80.162 E17.56132
G1 X140.896 Y81.158 E17.61306
G1 X141.04 Y81.534 E17.63314
G1 X141.106 Y81.745 E17.64417
G1 X141.271 Y82.064 E17.66209
G1 X141.334 Y82.215 E17.67025
G1 X141.617 Y82.622 E17.69498
G1 X141.995 Y83.908 E17.76186
G1 X143.141 Y84.231 E17.82126
G1 X144.958 Y85.181 E17.92355
G1 X147.092 Y87.413 E18.07761
G1 X148.078 Y88.973 E18.16969
G1 X148.968 Y92.021 E18.3281
G1 X148.966 Y93.574 E18.40558
G1 X148.94 Y94.418 E18.44771
G1 X149.067 Y96.337 E18.54366
G1 X151.096 Y98.453 E18.68991
G1 X152.085 Y100.013 E18.78207
G1 X152.89 Y102.76 E18.92488
G1 X153.064 Y104.932 E19.03359
G1 X152.148 Y107.999 E19.19328
G1 X152.061 Y108.205 E19.20443
G1 X151.928 Y108.612 E19.2258
G1 X151.884 Y108.718 E19.23152
G1 X151.358 Y110.624 E19.33017
G1 X152.076 Y111.756 E19.39705
G1 X152.882 Y114.511 E19.54025
G1 X153.056 Y116.637 E19.64668
G1 X152.164 Y119.803 E19.81078
G1 X151.248 Y121.538 E19.90866
G1 X150.399 Y122.388 E19.9686
G1 X149.966 Y122.9 E20.00205
G1 X149.796 Y123.143 E20.01685
G1 X149.528 Y123.718 E20.0485
G1 X148.594 Y124.661 E20.11471
G1 X148.855 Y125.548 E20.16084
G1 X149.029 Y127.673 E20.26721
G1 X148.148 Y130.794 E20.429
G1 X147.232 Y132.531 E20.52698
G1 X144.827 Y134.936 E20.69666
G1 X143.35 Y135.675 E20.77906
G1 X142.932 Y136.061 E20.80744
G1 X142.45 Y136.281 E20.83388
G1 X142.319 Y136.379 E20.84204
G1 X141.375 Y136.991 E20.89817
G1 X140.593 Y139.791 E21.04321
G1 X139.677 Y141.526 E21.14109
G1 X137.579 Y143.625 E21.28915
G1 X135.859 Y144.725 E21.39101
G1 X133.082 Y145.493 E21.53475
G1 X132.542 Y145.565 E21.56193
G1 X132.126 Y145.652 E21.58314
G1 X131.885 Y145.673 E21.5952
G1 X131.623 Y145.737 E21.60866
G1 X130.157 Y146.148 E21.68462
G1 X129.502 Y147.39 E21.75467
G1 X127.42 Y149.472 E21.90157
G1 X125.7 Y150.579 E22.00362
G1 X122.673 Y151.42 E22.16035
G1 X120.561 Y151.516 E22.26583
G1 X119.45 Y151.189 E22.32361
G1 X119.315 Y151.168 E22.33043
G1 X118.841 Y151.065 E22.35463
G1 X118.381 Y151.024 E22.37767
G1 X118.262 Y151.003 E22.38369
G1 X117.95 Y150.99 E22.39927
G1 X116.483 Y150.745 E22.47348
G1 X115.818 Y151.41 E22.5204
G1 X114.149 Y152.477 E22.61922
G1 X111.266 Y153.277 E22.76849
G1 X109.066 Y153.43 E22.87852
G1 X106.49 Y152.644 E23.01288
G1 X106.055 Y152.467 E23.03631
G1 X105.304 Y152.252 E23.07529
G1 X104.251 Y151.601 E23.13705
G1 X103.923 Y151.459 E23.15488
G1 X103.713 Y151.339 E23.16695
G1 X103.276 Y151.153 E23.19064
G1 X102.347 Y150.633 E23.24376
G1 X99.735 Y151.356 E23.37897
G1 X97.554 Y151.509 E23.48805
G1 X94.544 Y150.627 E23.64453
G1 X92.816 Y149.695 E23.74248
G1 X90.653 Y147.53 E23.89516
G1 X90.407 Y147.15 E23.91775
G1 X90.211 Y146.922 E23.93275
G1 X88.79 Y145.503 E24.03294
G1 X88.637 Y145.246 E24.04786
G1 X87.186 Y145.347 E24.12043
G1 X84.243 Y144.485 E24.27342
G1 X82.515 Y143.553 E24.37137
G1 X80.473 Y141.511 E24.51544
G1 X79.397 Y139.865 E24.61355
G1 X79.101 Y138.834 E24.66707
G1 X78.891 Y138.243 E24.69836
G1 X78.688 Y137.827 E24.72145
G1 X78.413 Y137.444 E24.74498
G1 X78.011 Y136.089 E24.81549
G1 X76.833 Y135.744 E24.87673
G1 X75.104 Y134.811 E24.97475
G1 X72.98 Y132.687 E25.12461
G1 X71.925 Y131.045 E25.22198
G1 X70.953 Y127.741 E25.3938
G1 X71.048 Y126.319 E25.4649
G1 X71.071 Y125.602 E25.50069
G1 X70.913 Y125.061 E25.52881
G1 X70.998 Y123.665 E25.59859
G1 X68.984 Y121.655 E25.74054
G1 X67.929 Y120.027 E25.83733
G1 X67.109 Y117.249 E25.98183
G1 X66.954 Y114.967 E26.09595
G1 X67.843 Y112.063 E26.24746
G1 X67.957 Y111.788 E26.26232
G1 X68.135 Y111.277 E26.28931
G1 X68.202 Y110.967 E26.30514
G1 X68.657 Y109.387 E26.38717
G1 X67.935 Y108.276 E26.45327
G1 X67.117 Y105.518 E26.59679
G1 X66.962 Y103.271 E26.70916
G1 X67.921 Y99.968 E26.88075
G1 X68.889 Y98.416 E26.97201
G1 X69.543 Y97.718 E27.01973
G1 X69.92 Y97.263 E27.04921
G1 X70.098 Y96.972 E27.06623
G1 X70.242 Y96.793 E27.07769
G1 X70.423 Y96.407 E27.09896
G1 X71.407 Y95.361 E27.17061
G1 X71.143 Y94.464 E27.21726
G1 X70.988 Y92.246 E27.32818
G1 X71.858 Y89.245 E27.48407
G1 X72.7 Y87.634 E27.57476
G1 X74.857 Y85.36 E27.73113
G1 X76.273 Y84.423 E27.81584
G1 X76.72 Y84.257 E27.83963
G1 X77.255 Y83.961 E27.87013
G1 X77.665 Y83.633 E27.89633
G1 X78.606 Y82.999 E27.95293
G1 X79.409 Y80.266 E28.09505
G1 X80.256 Y78.646 E28.18625
G1 X82.255 Y76.521 E28.3318
G0 F7500 X82.514 Y76.829
G1 F1500 X84.165 Y75.693 E28.43179
G1 X87.209 Y74.832 E28.58961
G1 X87.551 Y74.818 E28.60669
G1 X87.898 Y74.721 E28.62466
G1 X88.249 Y74.708 E28.64219
G1 X88.562 Y74.626 E28.65833
G1 X89.848 Y74.255 E28.7251
G1 X90.116 Y74.249 E28.73848
G1 X90.759 Y73.012 E28.80803
G1 X92.683 Y70.968 E28.94808
G1 X94.334 Y69.828 E29.04817
G1 X97.655 Y68.886 E29.2204
G1 X99.662 Y68.978 E29.32063
G1 X100.468 Y69.207 E29.36243
G1 X101.182 Y69.347 E29.39873
G1 X101.642 Y69.309 E29.42176
G1 X102.763 Y69.478 E29.47832
G1 X103.544 Y69.695 E29.51876
G1 X104.266 Y68.933 E29.57113
G1 X105.872 Y67.809 E29.66893
G1 X108.781 Y66.999 E29.81958
G1 X110.764 Y66.853 E29.91878
G1 X113.897 Y67.729 E30.08108
G1 X115.032 Y68.377 E30.14629
G1 X115.249 Y68.528 E30.15948
G1 X115.382 Y68.603 E30.16709
G1 X115.894 Y68.935 E30.19754
G1 X116.417 Y69.137 E30.22551
G1 X117.529 Y69.724 E30.28824
G1 X117.631 Y69.798 E30.29453
G1 X120.349 Y69.04 E30.4353
G1 X122.332 Y68.894 E30.5345
G1 X125.325 Y69.735 E30.68961
G1 X127.108 Y70.708 E30.79095
G1 X128.997 Y72.746 E30.92958
G1 X129.165 Y72.968 E30.94347
G1 X129.573 Y73.42 E30.97385
G1 X129.879 Y73.702 E30.99461
G1 X130.985 Y74.863 E31.07461
G1 X131.138 Y75.169 E31.09168
G1 X132.705 Y75.055 E31.17006
G1 X135.625 Y75.875 E31.32138
G1 X137.379 Y76.825 E31.42089
G1 X139.316 Y78.878 E31.56171
G1 X140.24 Y80.331 E31.64762
G1 X140.519 Y81.293 E31.69759
G1 X140.666 Y81.677 E31.7181
G1 X140.735 Y81.898 E31.72965
G1 X140.915 Y82.247 E31.74925
G1 X140.981 Y82.408 E31.75793
G1 X141.251 Y82.797 E31.78155
G1 X141.673 Y84.233 E31.85622
G1 X142.99 Y84.604 E31.92449
G1 X144.716 Y85.506 E32.02165
G1 X146.774 Y87.659 E32.17024
G1 X147.71 Y89.139 E32.2576
G1 X148.568 Y92.078 E32.41035
G1 X148.566 Y93.561 E32.48434
G1 X148.539 Y94.421 E32.52726
G1 X148.68 Y96.55 E32.63371
G1 X148.821 Y96.65 E32.64234
G1 X150.778 Y98.699 E32.7837
G1 X151.717 Y100.18 E32.87118
G1 X152.494 Y102.832 E33.00905
G1 X152.659 Y104.891 E33.11211
G1 X151.779 Y107.844 E33.26584
G1 X151.688 Y108.06 E33.27753
G1 X151.558 Y108.46 E33.29851
G1 X151.505 Y108.589 E33.30547
G1 X150.993 Y110.465 E33.40249
G1 X150.898 Y110.645 E33.41264
G1 X151.708 Y111.923 E33.48813
G1 X152.486 Y114.582 E33.62635
G1 X152.651 Y116.599 E33.72731
G1 X151.791 Y119.652 E33.88556
G1 X150.922 Y121.298 E33.97842
G1 X150.11 Y122.111 E34.03574
G1 X149.645 Y122.661 E34.07168
G1 X149.45 Y122.94 E34.08866
G1 X149.195 Y123.486 E34.11872
G1 X148.144 Y124.548 E34.19327
G1 X148.459 Y125.621 E34.24906
G1 X148.624 Y127.634 E34.34982
G1 X147.775 Y130.644 E34.50585
G1 X146.906 Y132.291 E34.59876
G1 X144.59 Y134.607 E34.76216
G1 X143.122 Y135.342 E34.84407
G1 X142.708 Y135.723 E34.87214
G1 X142.242 Y135.936 E34.8977
G1 X142.101 Y136.043 E34.90653
G1 X141.031 Y136.737 E34.97016
G1 X140.22 Y139.64 E35.12054
G1 X139.351 Y141.286 E35.2134
G1 X137.325 Y143.313 E35.35638
G1 X135.697 Y144.354 E35.45279
G1 X132.975 Y145.107 E35.59369
G1 X132.477 Y145.17 E35.61873
G1 X132.092 Y145.253 E35.63838
G1 X131.824 Y145.276 E35.6518
G1 X131.515 Y145.352 E35.66767
G1 X130.168 Y145.73 E35.73747
G1 X129.922 Y145.737 E35.74975
G1 X129.176 Y147.15 E35.82947
G1 X127.165 Y149.161 E35.97135
G1 X125.535 Y150.21 E36.06806
G1 X122.613 Y151.022 E36.21936
G1 X120.609 Y151.113 E36.31945
G1 X119.541 Y150.799 E36.37498
G1 X119.4 Y150.777 E36.3821
G1 X118.906 Y150.67 E36.40732
G1 X118.451 Y150.63 E36.43011
G1 X118.304 Y150.604 E36.43756
G1 X117.967 Y150.59 E36.45438
G1 X116.716 Y150.379 E36.51768
G1 X116.381 Y150.281 E36.53509
G1 X115.566 Y151.096 E36.59259
G1 X113.982 Y152.109 E36.6864
G1 X111.2 Y152.881 E36.83044
G1 X109.113 Y153.026 E36.93481
G1 X106.641 Y152.273 E37.06373
G1 X106.196 Y152.092 E37.0877
G1 X105.468 Y151.883 E37.12549
G1 X104.433 Y151.244 E37.18617
G1 X104.121 Y151.111 E37.20309
G1 X103.891 Y150.98 E37.2163
G1 X103.47 Y150.803 E37.23908
G1 X102.601 Y150.322 E37.28864
G1 X102.401 Y150.178 E37.30093
G1 X102.272 Y150.238 E37.30803
G1 X99.664 Y150.96 E37.44304
G1 X97.598 Y151.105 E37.54636
G1 X94.697 Y150.255 E37.69718
G1 X93.058 Y149.371 E37.79009
G1 X90.965 Y147.276 E37.93783
G1 X90.728 Y146.91 E37.95958
G1 X90.502 Y146.647 E37.97688
G1 X89.073 Y145.22 E38.07764
G1 X88.874 Y144.828 E38.09957
G1 X87.23 Y144.943 E38.18179
G1 X84.396 Y144.113 E38.32912
G1 X82.757 Y143.229 E38.42202
G1 X80.785 Y141.257 E38.56116
G1 X79.765 Y139.697 E38.65415
G1 X79.484 Y138.716 E38.70506
G1 X79.26 Y138.087 E38.73837
G1 X79.075 Y137.721 E38.75883
G1 X79.043 Y137.636 E38.76336
G1 X78.778 Y137.267 E38.78602
G1 X78.333 Y135.766 E38.86413
G1 X76.986 Y135.372 E38.93415
G1 X75.346 Y134.487 E39.02712
G1 X73.294 Y132.435 E39.1719
G1 X72.293 Y130.877 E39.26429
G1 X71.357 Y127.695 E39.42977
G1 X71.448 Y126.332 E39.49792
G1 X71.473 Y125.552 E39.53685
G1 X71.316 Y125.015 E39.56477
G1 X71.41 Y123.469 E39.64204
G1 X71.258 Y123.363 E39.65128
G1 X69.296 Y121.401 E39.78971
G1 X68.297 Y119.859 E39.88138
G1 X67.505 Y117.176 E40.02094
G1 X67.358 Y115.015 E40.129
G1 X68.213 Y112.216 E40.27502
G1 X68.331 Y111.931 E40.29041
